src/actions/22/format-border-set-internal.svg

<svg viewBox="0 0 22 22" xmlns="http://www.w3.org/2000/svg">
 <defs>
  <style type="text/css">.ColorScheme-Text {
        color:#2e3440;
      }</style>
 </defs>
 <path class="ColorScheme-Text" d="m3 2v1 16h1 16v-1-15-1h-1-15-1zm1 1h15v15h-15v-15z" fill="currentColor" fill-opacity=".1"/>
 <path class="ColorScheme-Text" d="m4 3v7h7v-7h-7zm8 0v7h7v-7h-7zm-8 8v7h7v-7h-7zm8 0v7h7v-7h-7z" fill="currentColor" fill-opacity=".5"/>
 <path class="ColorScheme-Text" d="m11 2v8h-8v1h8v8h1v-8h8v-1h-8v-8h-1z" fill="currentColor"/>
</svg>

<svg xmlns="http://www.w3.org/2000/svg" viewBox="0 0 22 22">
  <defs id="defs3051">
    <style type="text/css" id="current-color-scheme">
      .ColorScheme-Text {
        color:#2e3440;
      }
      </style>
  </defs>
 <path 
     style="fill:currentColor;fill-opacity:0.1;stroke:none" 
     d="M 3 2 L 3 3 L 3 19 L 4 19 L 20 19 L 20 18 L 20 3 L 20 2 L 19 2 L 4 2 L 3 2 z M 4 3 L 19 3 L 19 18 L 4 18 L 4 3 z "
     class="ColorScheme-Text"
     />
 <path 
     style="fill:currentColor;fill-opacity:0.5;stroke:none" 
     d="M 4 3 L 4 10 L 11 10 L 11 3 L 4 3 z M 12 3 L 12 10 L 19 10 L 19 3 L 12 3 z M 4 11 L 4 18 L 11 18 L 11 11 L 4 11 z M 12 11 L 12 18 L 19 18 L 19 11 L 12 11 z "
     class="ColorScheme-Text"
     />
 <path 
     style="fill:currentColor;fill-opacity:1.0;stroke:none" 
     d="M 11 2 L 11 10 L 3 10 L 3 11 L 11 11 L 11 19 L 12 19 L 12 11 L 20 11 L 20 10 L 12 10 L 12 2 L 11 2 z "
     class="ColorScheme-Text"
     />
</svg>
